X: 1
T: Wallop The Cat From Under The Table
T: Where is the Cat?
M: 12/8
L: 1/8
R: slide
F: https://thesession.org/tunes/2377
K: G Major
|: DED G2 D E2 D G3 | DED G2 B ABG E2 D |
DED G2 D E2 D G3 | BdB c2 B AB/A/G E2 D :|
|: B^AB d2 B =AGE c3 | B^AB d2 B =ABG E2 D |
B^AB d2 B =AGE c3 | e/f/ge d2 B ABG E2 D :|

